X:78
T:Don Tremaine's
M:4/4
L:1/8
K:D
FG |: ABA(G FD)E(F|GF)GA BcdB|Aceg fde(c|d)AFG A2 FG|
ABA(G FD)E(F|GF)GA BcdB|Aceg fde(c|1 d2) fd d2 FG :|2d2 fd d2 ef|
|:gage (fg)fd|(ef)ed (cA)e(f|gf)e(g fe)df|e2 a^g a2 ef|
=gage (fg)fd|(ef)ed (cB)A(F|GF)E(G FE)D(F|1ED)EF D2 ef:|2 EDE(F D2) FG |>|
